X: 1
T: The Hare
M: C
L: 1/8
R: reel
K:D 
"D"DFAd "G"(3BdB AG |"D"FABc dcd2|"D"DFAd "D#dim"(3BdB AF|"Em7"BFAF "A7"EGFE |
"D"DFAd "G"(3BdB AG |"D"FABc dcde|"D"f2fa "Em7" gfed |1"A7"cABc "D"d2d2:|[2 "A7"cABc "D"defg ||
"D"a2fd Ad"D#dim"fa|"Em7"g2ec Acef| "A"gece aece|"Em7"bgec "A7"defg|
"D"a2fd Adfa|"A"g2ec Acef| "Em7"gece aece|1 "A7"bgec "D"defg:|
[2 "A7"bgec "D"dBAF|]["Trans""A7"bgec "D"d4||
%%vskip 3cm

